X: 344
T:Brigit O'Malley
N: page 119
N: heptatonic
R: Waltz
M:3/4
L:1/8
K:G
%
DE | "G"G3 ABc | "Bm"d B3 d2 | "C"e3 dBA | "Em"G E3 ef | "C"g3 fef |
%
"Bm"ed B2 A2 | "Em"B2 e3 f | "C"e4 ef | g3 fef | "Bm"ed B2 Bc | \
"G"d3 "D/F#"BAB |
%
"Em"G2 E2 EF | "C"G2 e2 de | "Bm"B2 A2 BA | "C"G2 E2 "D"F2 | \
[1 "G"G4 :| [2 "G"G6 |]
%%newpage
